dist/img/advantages/04.svg

<?xml version="1.0" encoding="UTF-8"?> <svg xmlns="http://www.w3.org/2000/svg" width="300" height="300" viewBox="0 0 300 300" fill="none"> <g clip-path="url(#clip0)"> <path d="M255.489 119.346C263.933 113.308 269.476 103.335 269.384 92.1447C269.234 73.8392 254.308 59.1552 236.003 59.3049C217.697 59.4547 203.013 74.3809 203.163 92.6865C203.254 103.876 208.902 113.758 217.501 119.656C210.234 122.241 203.609 126.197 198.027 131.293C190.226 124.757 181.061 119.782 171.051 116.88C183.099 109.436 191.138 95.9986 191.014 80.7918C190.824 57.6086 171.906 38.9974 148.723 39.1871C125.54 39.3768 106.929 58.3523 107.118 81.4781C107.243 96.685 115.443 109.989 127.669 117.235C117.823 120.3 108.855 125.366 101.218 131.913C95.5542 127.024 88.9809 123.233 81.7877 120.824C90.2318 114.787 95.7742 104.813 95.6827 93.6232C95.5329 75.3176 80.6067 60.6336 62.3011 60.7834C43.9955 60.9331 29.3115 75.8594 29.4613 94.165C29.5528 105.355 35.2003 115.237 43.7994 121.135C21.0822 129.183 4.90466 150.95 5.11263 176.372L5.14361 180.159C5.14455 180.274 5.26026 180.388 5.37503 180.387L75.5559 179.813C75.18 182.972 74.9773 186.245 75.004 189.516L75.036 193.418C75.174 210.289 88.9432 223.834 105.814 223.696L194.76 222.969C211.631 222.831 225.176 209.062 225.038 192.191L225.006 188.288C224.98 185.018 224.723 181.749 224.296 178.596L294.936 178.018C295.051 178.017 295.164 177.901 295.163 177.786L295.132 173.999C294.809 148.521 278.335 127.021 255.489 119.346ZM212.344 92.554C212.236 79.3556 222.879 68.537 236.077 68.429C249.276 68.321 260.094 78.9641 260.202 92.1625C260.309 105.189 249.894 115.891 236.928 116.284C236.756 116.285 236.641 116.286 236.469 116.287C236.297 116.289 236.182 116.29 236.01 116.291C222.982 116.168 212.451 105.638 212.344 92.554ZM116.185 81.404C116.037 63.3279 130.607 48.5174 148.683 48.3695C166.759 48.2216 181.57 62.7918 181.718 80.8678C181.861 98.3126 168.263 112.714 151.113 113.829C150.481 113.835 149.85 113.84 149.219 113.845C148.588 113.85 147.957 113.855 147.325 113.86C130.159 113.025 116.328 98.8488 116.185 81.404ZM38.4697 93.9765C38.3617 80.7781 49.0047 69.9595 62.2031 69.8515C75.4015 69.7435 86.2201 80.3866 86.3281 93.5849C86.4347 106.611 76.0202 117.313 63.0537 117.706C62.8816 117.708 62.7668 117.709 62.5946 117.71C62.4225 117.711 62.3077 117.712 62.1356 117.714C49.1649 117.59 38.5767 107.06 38.4697 93.9765ZM77.0871 170.561L14.3662 171.074C16.7484 146.607 37.25 127.272 62.3255 126.894C62.4402 126.893 62.555 126.892 62.6698 126.891C62.7845 126.89 62.8993 126.89 63.0141 126.889C74.9505 126.848 85.8896 131.178 94.3838 138.282C86.1937 147.301 80.1437 158.369 77.0871 170.561ZM215.742 192.267C215.838 204.03 206.334 213.692 194.57 213.788L105.624 214.516C93.8605 214.612 84.1989 205.107 84.1027 193.344L84.0707 189.441C83.7792 153.806 112.003 124.422 147.401 123.099C148.033 123.151 148.721 123.146 149.352 123.141C149.984 123.136 150.672 123.13 151.303 123.067C186.718 123.811 215.419 152.729 215.71 188.365L215.742 192.267ZM222.384 169.372C219.129 157.29 213.015 146.493 204.735 137.608C213.168 130.194 224.15 125.685 236.2 125.472C236.314 125.471 236.429 125.47 236.544 125.469C236.659 125.468 236.773 125.467 236.888 125.466C261.967 125.433 282.782 144.43 285.564 168.855L222.384 169.372Z" fill="#ffffff"></path> </g> <defs> <clipPath id="clip0"> <rect width="300" height="300" fill="white"></rect> </clipPath> </defs> </svg>

<svg xmlns="http://www.w3.org/2000/svg" width="300" height="300" fill="none"><g clip-path="url(#clip0)"><path d="M255.489 119.346c8.444-6.038 13.987-16.011 13.895-27.201-.15-18.306-15.076-32.99-33.381-32.84-18.306.15-32.99 15.076-32.84 33.381.091 11.19 5.739 21.072 14.338 26.97-7.267 2.585-13.892 6.541-19.474 11.637-7.801-6.536-16.966-11.511-26.976-14.413 12.048-7.444 20.087-20.881 19.963-36.088-.19-23.183-19.108-41.795-42.291-41.605-23.183.19-41.794 19.165-41.605 42.291.125 15.207 8.325 28.511 20.551 35.757-9.846 3.065-18.814 8.131-26.451 14.678a57.838 57.838 0 00-19.43-11.089c8.444-6.037 13.986-16.011 13.895-27.2-.15-18.306-15.076-32.99-33.382-32.84-18.306.15-32.99 15.075-32.84 33.381.092 11.19 5.74 21.072 14.338 26.97-22.717 8.048-38.894 29.815-38.686 55.237l.03 3.787c.002.115.117.229.232.228l70.18-.574a77.182 77.182 0 00-.551 9.703l.032 3.902c.138 16.871 13.907 30.416 30.778 30.278l88.946-.727c16.871-.138 30.416-13.907 30.278-30.778l-.032-3.903a77.14 77.14 0 00-.71-9.692l70.64-.578c.115-.001.228-.117.227-.232l-.031-3.787c-.323-25.478-16.797-46.978-39.643-54.653zm-43.145-26.792c-.108-13.198 10.535-24.017 23.733-24.125 13.199-.108 24.017 10.535 24.125 23.733.107 13.027-10.308 23.729-23.274 24.122l-.459.003-.459.004c-13.028-.123-23.559-10.653-23.666-23.737zm-96.159-11.15c-.148-18.076 14.422-32.887 32.498-33.034 18.076-.148 32.887 14.422 33.035 32.498.143 17.445-13.455 31.846-30.605 32.961l-1.894.016-1.894.015c-17.166-.835-30.997-15.011-31.14-32.456zM38.47 93.977C38.362 80.778 49.005 69.96 62.203 69.85c13.198-.108 24.017 10.536 24.125 23.734.107 13.026-10.308 23.728-23.274 24.121l-.46.004-.458.004c-12.971-.124-23.56-10.654-23.666-23.737zm38.617 76.584l-62.72.513c2.381-24.467 22.883-43.802 47.959-44.18l.344-.003.344-.002c11.937-.041 22.876 4.289 31.37 11.393a75.34 75.34 0 00-17.297 32.279zm138.655 21.706c.096 11.763-9.408 21.425-21.172 21.521l-88.946.728c-11.763.096-21.425-9.409-21.521-21.172l-.032-3.903c-.292-35.635 27.932-65.019 63.33-66.342.632.052 1.32.047 1.951.042.632-.005 1.32-.011 1.951-.074 35.415.744 64.116 29.662 64.407 65.298l.032 3.902zm6.642-22.895c-3.255-12.082-9.369-22.879-17.649-31.764 8.433-7.414 19.415-11.923 31.465-12.136l.344-.003.344-.003c25.079-.033 45.894 18.964 48.676 43.389l-63.18.517z" fill="#fff"/></g><defs><clipPath id="clip0"><path fill="#fff" d="M0 0h300v300H0z"/></clipPath></defs></svg>
